**kern	**kern	**kern	**kern	**kern	**kern	**kern	**kern	**kern	**kern	**kern	**kern	**kern	**kern	**kern	**kern
*ITrd7c12	*	*	*	*	*	*ITrd1c2	*ITrd1c2	*ITrd8c14	*ITrd8c14	*	*	*	*	*	*
*	*Icello	*Iviola	*Ivioln	*Ivioln	*Itimpa	*	*	*	*	*Ifagot	*Ifagot	*Ioboe	*Ioboe	*Iflt	*Iflt
*Icbass	*I"Violoncello	*I"Viola	*I#2	*I#1	*I"Timpani	*Itromp	*Itromp	*Icor	*Icor	*I#2	*I#1	*I#2	*I#1	*I#2	*I#1
*I"Basso	*	*	*I"Violino II	*I"Violino I	*	*I#2	*I#1	*I#2	*I#1	*I"Fagotto 2	*I"Fagotto 1	*I"Oboe 2	*I"Oboe 1	*I"Flauto 2	*I"Flauto 1
*	*	*	*	*	*	*I"Tromba 2	*I"Tromba 1	*I"Corno 2	*I"Corno 1	*	*	*	*	*	*
*>[A,A,B,B,C,C,D,D]	*>[A,A,B,B,C,C,D,D]	*>[A,A,B,B,C,C,D,D]	*>[A,A,B,B,C,C,D,D]	*>[A,A,B,B,C,C,D,D]	*>[A,A,B,B,C,C,D,D]	*>[A,A,B,B,C,C,D,D]	*>[A,A,B,B,C,C,D,D]	*>[A,A,B,B,C,C,D,D]	*>[A,A,B,B,C,C,D,D]	*>[A,A,B,B,C,C,D,D]	*>[A,A,B,B,C,C,D,D]	*>[A,A,B,B,C,C,D,D]	*>[A,A,B,B,C,C,D,D]	*>[A,A,B,B,C,C,D,D]	*>[A,A,B,B,C,C,D,D]
*>norep[A,B,C,D]	*>norep[A,B,C,D]	*>norep[A,B,C,D]	*>norep[A,B,C,D]	*>norep[A,B,C,D]	*>norep[A,B,C,D]	*>norep[A,B,C,D]	*>norep[A,B,C,D]	*>norep[A,B,C,D]	*>norep[A,B,C,D]	*>norep[A,B,C,D]	*>norep[A,B,C,D]	*>norep[A,B,C,D]	*>norep[A,B,C,D]	*>norep[A,B,C,D]	*>norep[A,B,C,D]
=1	=1	=1	=1	=1	=1	=1	=1	=1	=1	=1	=1	=1	=1	=1	=1
*>A	*>A	*>A	*>A	*>A	*>A	*>A	*>A	*>A	*>A	*>A	*>A	*>A	*>A	*>A	*>A
*M3/4	*staff:11	*staff:12	*staff:13	*staff:14	*staff:15	*staff:16	*staff:16	*staff:17	*staff:17	*staff:18	*staff:18	*staff:19	*staff:19	*staff:20	*staff:20
*	*clefF4	*clefC3	*clefG2	*clefG2	*clefF4	*clefG2	*clefG2	*clefG2	*clefG2	*clefF4	*clefF4	*clefG2	*clefG2	*clefG2	*clefG2
*	*k[b-e-]	*k[b-e-]	*k[b-e-]	*k[b-e-]	*M3/4	*M3/4	*M3/4	*M3/4	*M3/4	*k[b-e-]	*k[b-e-]	*k[b-e-]	*k[b-e-]	*k[b-e-]	*k[b-e-]
*	*M3/4	*M3/4	*M3/4	*M3/4	*	*	*	*	*	*M3/4	*M3/4	*M3/4	*M3/4	*M3/4	*M3/4
4ryy	4r	4r	4r	4f	4r	4r	4r	4r	4r	4r	4r	4r	4r	4f	4f
=2	=2	=2	=2	=2	=2	=2	=2	=2	=2	=2	=2	=2	=2	=2	=2
.	.	.	.	32gQ	.	.	.	.	.	.	.	.	.	32gQ	32gQ
.	.	.	.	32fQ	.	.	.	.	.	.	.	.	.	32fQ	32fQ
.	.	.	.	32enQ	.	.	.	.	.	.	.	.	.	32enQ	32enQ
2.ryy	4BB-	4B-	4B- 4d	4f	4BB-	4d	4b-	4D	4B-	4BB-	4BB-	4d	4f	4f	4f
.	4r	4ryy	4r	4b-	4r	4ryy	4r	4ryy	4r	4ryy	4r	4ryy	4r	4b-	4b-
.	4r	4ryy	4r	4b-	4r	4ryy	4r	4ryy	4r	4ryy	4r	4ryy	4r	4b-	4b-
=3	=3	=3	=3	=3	=3	=3	=3	=3	=3	=3	=3	=3	=3	=3	=3
.	.	.	.	32ccQ	.	.	.	.	.	.	.	.	.	32ccQ	32ccQ
.	.	.	.	32b-Q	.	.	.	.	.	.	.	.	.	32b-Q	32b-Q
.	.	.	.	32aQ	.	.	.	.	.	.	.	.	.	32aQ	32aQ
2.ryy	4BB-	4B-	4d 4f	4b-	4BB-	4d	4b-	4D	4B-	4BB-	4BB-	4f	4b-	4b-	4b-
.	4r	4ryy	4r	4dd	4r	4ryy	4r	4ryy	4r	4ryy	4r	4ryy	4r	4dd	4dd
.	4r	4ryy	4r	4dd	4r	4ryy	4r	4ryy	4r	4ryy	4r	4b-	4dd	4dd	4dd
=4	=4	=4	=4	=4	=4	=4	=4	=4	=4	=4	=4	=4	=4	=4	=4
.	.	.	32ccQ	32ee-Q	.	.	.	.	.	.	.	.	32ee-Q	32ee-Q	32ee-Q
.	.	.	32b-Q	32ddQ	.	.	.	.	.	.	.	.	32ddQ	32ddQ	32ddQ
.	.	.	32aQ	32ccQ	.	.	.	.	.	.	.	.	32ccQ	32ccQ	32ccQ
2.ryy	4BB-	2B-	4b-	4dd	4BB-	4d	4b-	4BB-	4B-	2B-	2B-	4b-	4dd	4dd	4dd
.	4BB-	.	4dd	4ff	8BB-	4B-	4b-	4BB-	4B-	.	.	4dd	4ff	4ff	4ff
.	.	.	.	.	8BB-	.	.	.	.	.	.	.	.	.	.
.	4BB-	8e-	8gg	8bb-	8BB-	4B-	4b-	4BB-	4B-	8E-	8E-	8gg	8bb-	8bb-	8bb-
.	.	8g	8ee-	8gg	8BB-	.	.	.	.	8G	8G	8ee-	8gg	8gg	8gg
=5	=5	=5	=5	=5	=5	=5	=5	=5	=5	=5	=5	=5	=5	=5	=5
2.ryy	2BB-	2b-	2dd	2ff	4BB-	4B-	4b-	4BB-	4B-	2B-	2B-	2dd	2ff	2ff	2ff
.	.	.	.	.	4r	4ryy	4r	4ryy	4r	.	.	.	.	.	.
*	*	*	*	*	*	*	*	*	*	*clefC4	*clefC4	*	*	*	*
.	4r	4e-	8gg	8gg	4r	4ryy	4r	4ryy	4r	4e-	4g	4ee-	4gg	8gg	8gg
.	.	.	8ee-	8ee-	.	.	.	.	.	.	.	.	.	8ee-	8ee-
=6	=6	=6	=6	=6	=6	=6	=6	=6	=6	=6	=6	=6	=6	=6	=6
2.ryy	2.r	4d	8ff	8ff	2.r	2.r	2.r	2.r	2.r	4d	4f	4dd	4ff	8ff	8ff
.	.	.	8dd	8dd	.	.	.	.	.	.	.	.	.	8dd	8dd
.	.	4c	8ee-	8ee-	.	.	.	.	.	4c	4e-	4cc	4ee-	8ee-	8ee-
.	.	.	8cc	8cc	.	.	.	.	.	.	.	.	.	8cc	8cc
.	.	4Bn	8dd	8dd	.	.	.	.	.	4Bn	4d	4bn	4dd	8dd	8dd
.	.	.	8bn	8bn	.	.	.	.	.	.	.	.	.	8bn	8bn
=7	=7	=7	=7	=7	=7	=7	=7	=7	=7	=7	=7	=7	=7	=7	=7
2.ryy	4r	4c'	4cc'	4cc'	2.r	2.r	2.r	2.r	2.r	4c'	4e-'	4cc'	4ee-'	4cc'	4cc'
.	4r	4c'	4cc'	4cc'	.	.	.	.	.	4c'	4e-'	4cc'	4ee-'	4cc'	4cc'
.	8C	4e-	8g	8ee-	.	.	.	.	.	4e-	4g	4g	4ee-	8ee-	8ee-
.	8D	.	8e-	8cc	.	.	.	.	.	.	.	.	.	8cc	8cc
=8	=8	=8	=8	=8	=8	=8	=8	=8	=8	=8	=8	=8	=8	=8	=8
*	*staff:1	*staff:2	*staff:3	*staff:4	*staff:5	*staff:6	*staff:6	*staff:7	*staff:7	*staff:8	*staff:8	*staff:9	*staff:9	*staff:10	*staff:10
*staff:1	*	*	*	*	*	*	*	*	*	*	*	*	*	*	*
*clefF4	*	*	*	*	*	*	*	*	*	*	*	*	*	*	*
*k[b-e-]	*	*	*	*	*	*	*	*	*	*	*	*	*	*	*
4EE-'	4E-'	4d	8f	8dd	2.r	2.r	2.r	2.r	2.r	4d	4f	4f	4dd	8dd	8dd
.	.	.	8d	8b-X	.	.	.	.	.	.	.	.	.	8b-X	8b-X
16ryy	4E-'	4c	8e-	8cc	.	.	.	.	.	4c	4e-	4e-	4cc	8cc	8cc
16ryy	.	.	.	.	.	.	.	.	.	.	.	.	.	.	.
16ryy	.	.	8c	8a	.	.	.	.	.	.	.	.	.	8a	8a
16ryy	.	.	.	.	.	.	.	.	.	.	.	.	.	.	.
16ryy	4En'	4B-X	8d	8b-	.	.	.	.	.	4B-X	4d	4d	4b-X	8b-	8b-
16ryy	.	.	.	.	.	.	.	.	.	.	.	.	.	.	.
16ryy	.	.	8B-	8g	.	.	.	.	.	.	.	.	.	8g	8g
16ryy	.	.	.	.	.	.	.	.	.	.	.	.	.	.	.
!!WARNING: This measure contained too few data records
*	*	*	*	*	*	*	*	*	*	*clefF4	*clefF4	*	*	*	*
=9	=9	=9	=9	=9	=9	=9	=9	=9	=9	=9	=9	=9	=9	=9	=9
2.ryy	4F'	4F'	4f'	4f'	2.r	2.r	2.r	2.r	2.r	4F'	4F'	4f'	4f'	4f'	4f'
.	4F'	4F'	4f'	4f'	.	.	.	.	.	4F'	4F'	4f'	4f'	4f'	4f'
.	4r	4ryy	4r	4fz	.	.	.	.	.	4ryy	4r	4ryy	4r	4fz	4fz
=10	=10	=10	=10	=10	=10	=10	=10	=10	=10	=10	=10	=10	=10	=10	=10
.	.	.	.	32gQ	.	.	.	.	.	.	.	.	.	32gQ	32gQ
.	.	.	.	32fQ	.	.	.	.	.	.	.	.	.	32fQ	32fQ
.	.	.	.	32enQ	.	.	.	.	.	.	.	.	.	32enQ	32enQ
2.ryy	4BB-	4B-	4B- 4d	4f	4BB-	4d	4b-	4D	4B-	4BB-	4BB-	4d	4f	4f	4f
.	4r	4ryy	4r	4b-	4r	4ryy	4r	4ryy	4r	4ryy	4r	4ryy	4r	4b-	4b-
.	4r	4ryy	4r	4b-	4r	4ryy	4r	4ryy	4r	4ryy	4r	4ryy	4r	4b-	4b-
=11	=11	=11	=11	=11	=11	=11	=11	=11	=11	=11	=11	=11	=11	=11	=11
.	.	.	.	32ccQ	.	.	.	.	.	.	.	.	.	32ccQ	32ccQ
.	.	.	.	32b-Q	.	.	.	.	.	.	.	.	.	32b-Q	32b-Q
.	.	.	.	32aQ	.	.	.	.	.	.	.	.	.	32aQ	32aQ
2.ryy	4BB-	4B-	4d 4f	4b-	4BB-	4d	4b-	4D	4B-	4BB-	4BB-	4f	4b-	4b-	4b-
.	4r	4ryy	4r	4dd	4r	4ryy	4r	4ryy	4r	4ryy	4r	4ryy	4r	4dd	4dd
.	4r	4ryy	4r	4dd	4r	4ryy	4r	4ryy	4r	4ryy	4r	4b-	4dd	4dd	4dd
=12	=12	=12	=12	=12	=12	=12	=12	=12	=12	=12	=12	=12	=12	=12	=12
.	.	.	32ccQ	32ee-Q	.	.	.	.	.	.	.	.	32ee-Q	32ee-Q	32ee-Q
.	.	.	32b-Q	32ddQ	.	.	.	.	.	.	.	.	32ddQ	32ddQ	32ddQ
.	.	.	32aQ	32ccQ	.	.	.	.	.	.	.	.	32ccQ	32ccQ	32ccQ
2.ryy	4BB-	2B-	4b-	4dd	16BB-	4B-	4b-	4BB-	4B-	2B-	2B-	4b-	4dd	4dd	4dd
.	.	.	.	.	16BB-	.	.	.	.	.	.	.	.	.	.
.	.	.	.	.	16BB-	.	.	.	.	.	.	.	.	.	.
.	.	.	.	.	16BB-	.	.	.	.	.	.	.	.	.	.
.	4BB-	.	4dd	4ff	16BB-	4B-	4b-	4BB-	4B-	.	.	4dd	4ff	4ff	4ff
.	.	.	.	.	16BB-	.	.	.	.	.	.	.	.	.	.
.	.	.	.	.	16BB-	.	.	.	.	.	.	.	.	.	.
.	.	.	.	.	16BB-	.	.	.	.	.	.	.	.	.	.
.	4BB-	8e-	8gg	8bb-	16BB-	4B-	4b-	4BB-	4B-	8E-	8E-	8gg	8bb-	8bb-	8bb-
.	.	.	.	.	16BB-	.	.	.	.	.	.	.	.	.	.
.	.	8g	8ee-	8gg	16BB-	.	.	.	.	8G	8G	8ee-	8gg	8gg	8gg
.	.	.	.	.	16BB-	.	.	.	.	.	.	.	.	.	.
=13	=13	=13	=13	=13	=13	=13	=13	=13	=13	=13	=13	=13	=13	=13	=13
2.ryy	2BB-	2b-	2dd	2ff	4BB-	4B-	4b-	4BB-	4B-	2B-	2B-	2dd	2ff	2ff	2ff
.	.	.	.	.	4r	4ryy	4r	4ryy	4r	.	.	.	.	.	.
.	4r	4r	4b-'	8een	4r	4ryy	4r	4ryy	4r	4ryy	4r	4r	4cc'	8een	8een
.	.	.	.	8gg	.	.	.	.	.	.	.	.	.	8gg	8gg
=14	=14	=14	=14	=14	=14	=14	=14	=14	=14	=14	=14	=14	=14	=14	=14
2.ryy	2.r	2.r	4a'	8ff	2.r	2.r	2.r	2.r	2.r	2.r	2.r	4r	4cc'	8ff	8ff
.	.	.	.	8aa	.	.	.	.	.	.	.	.	.	8aa	8aa
.	.	.	4en'	8gg	.	.	.	.	.	.	.	4r	4cc'	8gg	8gg
.	.	.	.	8bb-	.	.	.	.	.	.	.	.	.	8bb-	8bb-
.	.	.	4b-'	8een	.	.	.	.	.	.	.	4cc'	4r	8een	8een
.	.	.	.	8gg	.	.	.	.	.	.	.	.	.	8gg	8gg
=15	=15	=15	=15	=15	=15	=15	=15	=15	=15	=15	=15	=15	=15	=15	=15
*	*staff:9	*staff:10	*staff:11	*staff:12	*staff:13	*staff:14	*staff:14	*staff:15	*staff:15	*staff:16	*staff:16	*staff:17	*staff:17	*staff:18	*staff:18
2.ryy	4r	4r	4a'	8ff	2.r	2.r	2.r	2.r	2.r	4ryy	4r	4cc'	4r	8ff	8ff
.	.	.	.	8aa	.	.	.	.	.	.	.	.	.	8aa	8aa
.	4r	4r	4en'	8gg	.	.	.	.	.	4ryy	4r	4cc'	4r	8gg	8gg
.	.	.	.	8bb-	.	.	.	.	.	.	.	.	.	8bb-	8bb-
.	4C'	4C' 4c'y	4c'	4c'	.	.	.	.	.	4C'	4C'	4c'	4c'	4cc'	4cc'
=16	=16	=16	=16	=16	=16	=16	=16	=16	=16	=16	=16	=16	=16	=16	=16
2.ryy	4C'	4C' 4c'y	4c'	4c'	2.r	2.r	2.r	2.r	2.r	4C'	4C'	4c'	4c'	4cc'	4cc'
.	4C'	4C' 4c'y	4c'	4c'	.	.	.	.	.	4C'	4C'	4c'	4c'	4cc'	4cc'
.	4r	4r	4a'	8ff	.	.	.	.	.	4ryy	4r	4r	4cc'	8ff	8ff
.	.	.	.	8aa	.	.	.	.	.	.	.	.	.	8aa	8aa
=17	=17	=17	=17	=17	=17	=17	=17	=17	=17	=17	=17	=17	=17	=17	=17
2.ryy	2.r	2.r	4en'	8gg	2.r	2.r	2.r	2.r	2.r	2.r	2.r	4r	4cc'	8gg	8gg
.	.	.	.	8bb-	.	.	.	.	.	.	.	.	.	8bb-	8bb-
.	.	.	4f'	8aa	.	.	.	.	.	.	.	4r	4cc'	8aa	8aa
.	.	.	.	8ccc	.	.	.	.	.	.	.	.	.	8ccc	8ccc
.	.	.	4a'	8ff	.	.	.	.	.	.	.	4cc'	4r	8ff	8ff
.	.	.	.	8aa	.	.	.	.	.	.	.	.	.	8aa	8aa
=18	=18	=18	=18	=18	=18	=18	=18	=18	=18	=18	=18	=18	=18	=18	=18
2.ryy	4r	4r	4en'	8gg	2.r	2.r	2.r	2.r	2.r	4ryy	4r	4cc'	4r	8gg	8gg
.	.	.	.	8bb-	.	.	.	.	.	.	.	.	.	8bb-	8bb-
.	4r	4r	4f'	8aa	.	.	.	.	.	4ryy	4r	4cc'	4r	8aa	8aa
.	.	.	.	8ccc	.	.	.	.	.	.	.	.	.	8ccc	8ccc
.	4D'	4D'	4d'	4d'	.	.	.	.	.	4D'	4D'	4d'	4d'	4d'	4d'
=19	=19	=19	=19	=19	=19	=19	=19	=19	=19	=19	=19	=19	=19	=19	=19
2.ryy	4D'	4D'	4d'	4d'	4r	4ryy	4r	4ryy	4r	4D'	4D'	4d'	4d'	4d'	4d'
.	4D'	4D'	4d'	4d'	4r	4ryy	4r	4ryy	4r	4D'	4D'	4d'	4d'	4d'	4d'
.	4BB-	4f	4bb-	4ddd	4BB-	4b-	4dd	4B-	4d	4f	4f	4bb-	4ddd	4ddd	4ddd
=20	=20	=20	=20	=20	=20	=20	=20	=20	=20	=20	=20	=20	=20	=20	=20
2.ryy	4BB-	4f	4bb-	4ddd	4BB-	4b-	4dd	4B-	4d	4f	4f	4bb-	4ddd	4ddd	4ddd
.	4BB-	4f	4bb-	4ddd	4BB-	4b-	4dd	4B-	4d	4f	4f	4bb-	4ddd	4ddd	4ddd
.	4C	4G	4b- 4een	4b- 4een	4BB-	4cc	4cc	4c	4c	4G	4G	4ee	4een	4een	4een
=21	=21	=21	=21	=21	=21	=21	=21	=21	=21	=21	=21	=21	=21	=21	=21
2ryy	4F	4A	4a 4ff	4a 4ff	4FF	4f	4cc	4F	4c	4A	4A	4ff	4ff	4ff	4ff
.	4r	4r	4r	4r	4r	4ryy	4r	4ryy	4r	4ryy	4r	4ryy	4r	4r	4r
=22:||:	=22:||:	=22:||:	=22:||:	=22:||:	=22:||:	=22:||:	=22:||:	=22:||:	=22:||:	=22:||:	=22:||:	=22:||:	=22:||:	=22:||:	=22:||:
*>B	*>B	*>B	*>B	*>B	*>B	*>B	*>B	*>B	*>B	*>B	*>B	*>B	*>B	*>B	*>B
4ryy	4A-'	4r	4r	4r	4r	4r	4r	4r	4r	4r	4r	4r	4r	4r	4r
=23	=23	=23	=23	=23	=23	=23	=23	=23	=23	=23	=23	=23	=23	=23	=23
2.ryy	4A-'	4r	2.r	2.r	2.r	2.r	2.r	2.r	2.r	2.r	2.r	2.r	2.r	2.r	2.r
.	4A-'	4r	.	.	.	.	.	.	.	.	.	.	.	.	.
.	4r	4f'	.	.	.	.	.	.	.	.	.	.	.	.	.
=24	=24	=24	=24	=24	=24	=24	=24	=24	=24	=24	=24	=24	=24	=24	=24
2.ryy	2.r	4f'	4r	2.r	2.r	2.r	2.r	2.r	2.r	2.r	2.r	2.r	2.r	2.r	2.r
.	.	4f'	4r	.	.	.	.	.	.	.	.	.	.	.	.
.	.	4r	4bn'	.	.	.	.	.	.	.	.	.	.	.	.
=25	=25	=25	=25	=25	=25	=25	=25	=25	=25	=25	=25	=25	=25	=25	=25
*	*staff:1	*staff:2	*staff:3	*staff:4	*	*	*	*staff:5	*staff:5	*staff:6	*staff:6	*staff:7	*staff:7	*staff:8	*staff:8
2.ryy	4r	4r	4bn'	4r	2.ryy	2.ryy	2.ryy	4ryy	4r	4ryy	4r	4ryy	4r	4ryy	4r
.	4r	4r	4b'	4r	.	.	.	4ryy	4r	4ryy	4r	4ryy	4r	4ryy	4r
.	4G'	8f	4d' 4b'y	8aa-	.	.	.	4D'	4F'	4GG'	4GG'	4ff'	4aa-'	4bbn	4ddd'
.	.	8a-	.	8ff	.	.	.	.	.	.	.	.	.	.	.
=26	=26	=26	=26	=26	=26	=26	=26	=26	=26	=26	=26	=26	=26	=26	=26
2.ryy	4G'	8f	4d 4bn'	8aa-	2.ryy	2.ryy	2.ryy	4D'	4F'	4GG'	4GG'	4ff'	4aa-'	4bbn'	4ddd'
.	.	8a-	.	8ff	.	.	.	.	.	.	.	.	.	.	.
.	4G'	8f	4d' 4b'y	8aa-	.	.	.	4D'	4F'	4GG'	4GG'	4ff'	4aa-'	4bb'	4ddd'
.	.	8a-	.	8ff	.	.	.	.	.	.	.	.	.	.	.
.	4GG'	8f	4d' 4b'y	8aa-	.	.	.	4D'	4F'	4G'	4G'	4ff'	4aa-'	4bb'	4ddd'
.	.	8a-	.	8ff	.	.	.	.	.	.	.	.	.	.	.
=27	=27	=27	=27	=27	=27	=27	=27	=27	=27	=27	=27	=27	=27	=27	=27
2.ryy	4GG'	8f	8bn	8aa-	2.ryy	2.ryy	2.ryy	4D'	4F'	4G'	4G'	4ff	4aa-	4bbn	4ddd
.	.	8a-	8dd	8ff	.	.	.	.	.	.	.	.	.	.	.
.	4GG'	8e-	8ee-	8gg	.	.	.	4ryy	4r	4G'	4G'	4ee-	4gg	4ccc	4eee-
.	.	8g	8cc	8ee-	.	.	.	.	.	.	.	.	.	.	.
.	4GG'	8d	8b	8ff	.	.	.	4ryy	4r	4GG'	4GG'	4dd	4ff	4ddd	4fff
.	.	8f	8dd	8dd	.	.	.	.	.	.	.	.	.	.	.
=28	=28	=28	=28	=28	=28	=28	=28	=28	=28	=28	=28	=28	=28	=28	=28
2.ryy	4C'	4e-'	4g'	4ee-'	2.ryy	2.ryy	2.ryy	2.r	2.r	4C'	4C'	2ee-	4ee-'	2ccc	2eee-
.	4C'	4e-'	4gg'	4ee-'	.	.	.	.	.	4C'	4C'	.	4ee-'	.	.
.	4E-'	4g'	4ee-'	4ccc'	.	.	.	.	.	4E-'	4E-'	4cc'	4gg'	4ccc'	4ccc'
=29	=29	=29	=29	=29	=29	=29	=29	=29	=29	=29	=29	=29	=29	=29	=29
2.ryy	2F	2a-	2cc	4dd'	2.ryy	2.ryy	2.ryy	2.r	2.r	2F	2F	2cc	2aa-	4dd'	4dd'
.	.	.	.	4dd'	.	.	.	.	.	.	.	.	.	4dd'	4dd'
.	4G'	4f'	4bn'	4gg'	.	.	.	.	.	4G'	4G'	4bn'	4dd'	4gg'	4gg'
=30	=30	=30	=30	=30	=30	=30	=30	=30	=30	=30	=30	=30	=30	=30	=30
2.ryy	4A-'	4e-'	4cc'	4cc'	2.ryy	2.ryy	2.ryy	2.r	2.r	4A-'	4A-'	4cc'	4cc'	4cc'	4cc'
.	4r	4r	4r	4r	.	.	.	.	.	4ryy	4r	4ryy	4r	4ryy	4r
.	4E-'	4G'	4c'	4cc'	.	.	.	.	.	4E-'	4E-'	4g'	4cc'	4cc'	4cc'
=31	=31	=31	=31	=31	=31	=31	=31	=31	=31	=31	=31	=31	=31	=31	=31
2.ryy	2F	2A-	2c	4d'	2.ryy	2.ryy	2.ryy	2.r	2.r	2F	2F	2a-	2cc	4dd'	4dd'
.	.	.	.	4d'	.	.	.	.	.	.	.	.	.	4dd'	4dd'
.	4G'	4G'	4Bn'	4g'	.	.	.	.	.	4G'	4G'	4g'	4bn'	4gg'	4gg'
=32	=32	=32	=32	=32	=32	=32	=32	=32	=32	=32	=32	=32	=32	=32	=32
2.ryy	2En;	2G;	2B-X;	2c;	2.ryy	2.ryy	2.ryy	4r	4r	2E;y	2En;	2g;y	2b-X;	2cc;y	2cc;
.	.	.	.	.	.	.	.	4r;	4r;	.	.	.	.	.	.
.	4r	4r	4r	4c	.	.	.	4r	4r	4ryy	4r	4ryy	4r	4ryy	4r
=33	=33	=33	=33	=33	=33	=33	=33	=33	=33	=33	=33	=33	=33	=33	=33
*	*staff:11	*staff:12	*staff:13	*staff:14	*staff:15	*staff:16	*staff:16	*staff:17	*staff:17	*staff:18	*staff:18	*staff:19	*staff:19	*staff:20	*staff:20
.	.	.	.	32dQ	.	.	.	.	.	.	.	.	.	.	.
.	.	.	.	32cQ	.	.	.	.	.	.	.	.	.	.	.
.	.	.	.	32BnQ	.	.	.	.	.	.	.	.	.	.	.
2.ryy	2E-X	2F	2A	4c	2.r	2.r	2.r	2.r	2.r	2.r	4r	4ryy	4r	4r	2.r
.	.	.	.	4f'	.	.	.	.	.	.	4r	4ryy	4r	4r	.
.	4r	4r	4r	4r	.	.	.	.	.	.	4e-X'	4an'	4ff'	4cc'	.
=34	=34	=34	=34	=34	=34	=34	=34	=34	=34	=34	=34	=34	=34	=34	=34
2.ryy	2.r	2.r	2.r	4r	2.r	2.r	2.r	2.r	2.r	2.r	4e-'	4a'	4ff'	4cc'	2.r
.	.	.	.	4r	.	.	.	.	.	.	4e-'	4a'	4ff'	4cc'	.
.	.	.	.	4e-X	.	.	.	.	.	.	4r	4ryy	4r	4r	.
=35	=35	=35	=35	=35	=35	=35	=35	=35	=35	=35	=35	=35	=35	=35	=35
.	.	.	.	32fQ	.	.	.	.	.	.	.	.	.	.	.
.	.	.	.	32e-Q	.	.	.	.	.	.	.	.	.	.	.
.	.	.	.	32dQ	.	.	.	.	.	.	.	.	.	.	.
2.ryy	2AA	2F	2c	4e-	2.r	2.r	2.r	2.r	2.r	2.r	4r	4ryy	4r	2.r	4r
.	.	.	.	4cc	.	.	.	.	.	.	4r	4ryy	4r	.	4r
.	4r	4r	4r	4r	.	.	.	.	.	.	4f'	4ee-'	4a'	.	4ccc'
=36	=36	=36	=36	=36	=36	=36	=36	=36	=36	=36	=36	=36	=36	=36	=36
2.ryy	2.r	2.r	2.r	4r	2.r	2.r	2.r	4ryy	4r	4r	4f'	4ee-'	4a'	4r	4ccc'
.	.	.	.	4r	.	.	.	4ryy	4r	4r	4f'	4ee-'	4a'	4r	4ccc'
*	*	*	*	*	*	*	*	*	*	*clefC4	*clefC4	*	*	*	*
.	.	.	.	4f	.	.	.	4d	4f	4d	4f	4r	4ff	4ddd	4fff
=37	=37	=37	=37	=37	=37	=37	=37	=37	=37	=37	=37	=37	=37	=37	=37
.	.	.	.	32gQ	.	.	.	.	.	.	.	.	32ggQ	.	.
.	.	.	.	32fQ	.	.	.	.	.	.	.	.	32ffQ	.	.
.	.	.	.	32enQ	.	.	.	.	.	.	.	.	32eenQ	.	.
2.ryy	4BB-	4B-	4B- 4d	4f	4BB-	4d	4b-	4d	4f	4d	4f	4dd	4ff	4ddd	4fff
.	4r	4ryy	4r	4b-	4r	4ryy	4r	4B-	4d	4B-	4d	4r	4bb-	4bb-	4ddd
.	4r	4ryy	4r	4b-	4r	4ryy	4r	4B-	4d	4B-	4d	4r	4b-	4bb-	4ddd
=38	=38	=38	=38	=38	=38	=38	=38	=38	=38	=38	=38	=38	=38	=38	=38
.	.	.	.	32ccQ	.	.	.	.	.	.	.	.	32ccQ	.	.
.	.	.	.	32b-Q	.	.	.	.	.	.	.	.	32b-Q	.	.
.	.	.	.	32aQ	.	.	.	.	.	.	.	.	32aQ	.	.
2.ryy	4BB-	4B-	4d 4f	4b-	4BB-	4d	4b-	4B-	4d	4B-	4d	4dd	4b-	4bb-	4ddd
.	4r	4ryy	4r	4dd	4r	4ryy	4r	4D	4B-	4F	4B-	4r	4dd	4ff	4bb-
.	4r	4ryy	4r	4dd	4r	4ryy	4r	4D	4B-	4d	4f	4b-	4dd	4ff	4bb-
=39	=39	=39	=39	=39	=39	=39	=39	=39	=39	=39	=39	=39	=39	=39	=39
.	.	.	32ccQ	32ee-Q	.	.	.	.	.	.	.	.	32ee-Q	.	.
.	.	.	32b-Q	32ddQ	.	.	.	.	.	.	.	.	32ddQ	.	.
.	.	.	32aQ	32ccQ	.	.	.	.	.	.	.	.	32ccQ	.	.
2.ryy	4BB-	2B-	4b-	4dd	4BB-	4B-	4b-	4BB-	4B-	4d	4f	4b-	4dd	4ff	4bb-
.	4BB-	.	4dd	4ff	8BB-	4B-	4b-	4BB-	4B-	4B-	4d	4dd	4ff	4dd	4ff
.	.	.	.	.	8BB-	.	.	.	.	.	.	.	.	.	.
.	4BB-	8e-	8gg	8bb-	8BB-	4B-	4b-	4BB-	4B-	4e-	4g	8gg	8bb-	8gg	8bb-
.	.	8g	8ee-	8gg	8BB-	.	.	.	.	.	.	8ee-	8gg	8ee-	8gg
=40	=40	=40	=40	=40	=40	=40	=40	=40	=40	=40	=40	=40	=40	=40	=40
*	*staff:1	*staff:2	*staff:3	*staff:4	*staff:5	*staff:6	*staff:6	*staff:7	*staff:7	*staff:8	*staff:8	*staff:9	*staff:9	*staff:10	*staff:10
2.ryy	2BB-	2b-	2dd	2ff	4BB-	4B-	4b-	4BB-	4B-	2d	2f	2dd	2ff	2dd	2ff
.	.	.	.	.	4r	4ryy	4r	4ryy	4r	.	.	.	.	.	.
.	4r	4e-	8gg	8gg	4r	4ryy	4r	4ryy	4r	4e-	4g	4ee-	4gg	4ryy	4r
.	.	.	8ee-	8ee-	.	.	.	.	.	.	.	.	.	.	.
=41	=41	=41	=41	=41	=41	=41	=41	=41	=41	=41	=41	=41	=41	=41	=41
2.ryy	2.r	4d	8ff	8ff	2.r	2.r	2.r	2.r	2.r	4d	4f	4dd	4ff	2.r	2.r
.	.	.	8dd	8dd	.	.	.	.	.	.	.	.	.	.	.
.	.	4c	8ee-	8ee-	.	.	.	.	.	4c	4e-	4cc	4ee-	.	.
.	.	.	8cc	8cc	.	.	.	.	.	.	.	.	.	.	.
.	.	4Bn	8dd	8dd	.	.	.	.	.	4Bn	4d	4bn	4dd	.	.
.	.	.	8bn	8bn	.	.	.	.	.	.	.	.	.	.	.
=42	=42	=42	=42	=42	=42	=42	=42	=42	=42	=42	=42	=42	=42	=42	=42
2.ryy	4r	4c'	4cc'	4cc'	2.r	2.r	2.r	2.r	2.r	4c'	4e-'	4cc'	4ee-'	2.r	2.r
.	4r	4c'	4cc'	4cc'	.	.	.	.	.	4c'	4e-'	4cc'	4ee-'	.	.
.	8C	4e-	8g	8ee-	.	.	.	.	.	4e-	4g	4g	4ee-	.	.
.	8D	.	8e-	8cc	.	.	.	.	.	.	.	.	.	.	.
=43	=43	=43	=43	=43	=43	=43	=43	=43	=43	=43	=43	=43	=43	=43	=43
2.ryy	4E-'	4d	8f	8dd	2.r	2.r	2.r	2.r	2.r	4d	4f	4f	4dd	2.r	2.r
.	.	.	8d	8b-X	.	.	.	.	.	.	.	.	.	.	.
.	4E-'	4c	8e-	8cc	.	.	.	.	.	4c	4e-	4e-	4cc	.	.
.	.	.	8c	8a	.	.	.	.	.	.	.	.	.	.	.
.	4En'	4B-X	8d	8b-	.	.	.	.	.	4B-X	4d	4d	4b-X	.	.
.	.	.	8B-	8g	.	.	.	.	.	.	.	.	.	.	.
*	*	*	*	*	*	*	*	*	*	*clefF4	*clefF4	*	*	*	*
=44	=44	=44	=44	=44	=44	=44	=44	=44	=44	=44	=44	=44	=44	=44	=44
2.ryy	4F'	4F'	4f'	4f'	2.r	2.r	2.r	4ryy	4r	4F'	4F'	4f	4f	4ryy	4r
.	4F'	4F'	4f'	4f'	.	.	.	4ryy	4r	4F'	4F'	4ryy	4r	4ryy	4r
*	*	*	*	*	*	*	*	*	*	*clefC4	*clefC4	*	*	*	*
.	4r	4ryy	4r	4fz	.	.	.	4D	4F	4d	4f	4r	4f	4ddd	4fff
=45	=45	=45	=45	=45	=45	=45	=45	=45	=45	=45	=45	=45	=45	=45	=45
.	.	.	.	32gQ	.	.	.	.	.	.	.	.	32gQ	.	.
.	.	.	.	32fQ	.	.	.	.	.	.	.	.	32fQ	.	.
.	.	.	.	32enQ	.	.	.	.	.	.	.	.	32enQ	.	.
2.ryy	4BB-	4B-	4B- 4d	4f	4BB-	4d	4b-	2D	4F	4d	4f	4d	4f	4ddd	4fff
.	4r	4ryy	4r	4b-	4r	4ryy	4r	.	4B-	4B-	4d	4r	4b-	4bb-	4ddd
.	4r	4ryy	4r	4b-	4r	4ryy	4r	4B-	4B-	4B-	4d	4r	4b-	4bb-	4ddd
=46	=46	=46	=46	=46	=46	=46	=46	=46	=46	=46	=46	=46	=46	=46	=46
.	.	.	.	32ccQ	.	.	.	.	.	.	.	.	32ccQ	.	.
.	.	.	.	32b-Q	.	.	.	.	.	.	.	.	32b-Q	.	.
.	.	.	.	32aQ	.	.	.	.	.	.	.	.	32aQ	.	.
2.ryy	4BB-	4B-	4d 4f	4b-	4BB-	4d	4b-	2B-	4B-	4B-	4d	4f	4b-	4bb-	4ddd
.	4r	4ryy	4r	4dd	4r	4ryy	4r	.	4d	4F	4B-	4r	4dd	4ff	4bb-
.	4r	4ryy	4r	4dd	4r	4ryy	4r	4B-	4d	4d	4f	4b-	4dd	4dd	4ff
=47	=47	=47	=47	=47	=47	=47	=47	=47	=47	=47	=47	=47	=47	=47	=47
*	*staff:11	*staff:12	*staff:13	*staff:14	*staff:15	*staff:16	*staff:16	*staff:17	*staff:17	*staff:18	*staff:18	*staff:19	*staff:19	*staff:20	*staff:20
.	.	.	32ccQ	32ee-Q	.	.	.	.	.	.	.	.	32ee-Q	.	.
.	.	.	32b-Q	32ddQ	.	.	.	.	.	.	.	.	32ddQ	.	.
.	.	.	32aQ	32ccQ	.	.	.	.	.	.	.	.	32ccQ	.	.
2.ryy	4BB-	2B-	4b-	4dd	16BB-	4d	4b-	2B-	4d	4d	4f	4b-	4dd	4dd	4ff
.	.	.	.	.	16BB-	.	.	.	.	.	.	.	.	.	.
.	.	.	.	.	16BB-	.	.	.	.	.	.	.	.	.	.
.	.	.	.	.	16BB-	.	.	.	.	.	.	.	.	.	.
.	4BB-	.	4dd	4ff	16BB-	4B-	4b-	.	8f	4B-	4d	4dd	4ff	4b-	4dd
.	.	.	.	.	16BB-	.	.	.	.	.	.	.	.	.	.
.	.	.	.	.	16BB-	.	.	.	8d	.	.	.	.	.	.
.	.	.	.	.	16BB-	.	.	.	.	.	.	.	.	.	.
.	4BB-	8e-	8gg	8bb-	16BB-	4B-	4b-	4BB-	4B-	4e-	4g	8gg	8bb-	8gg	8bb-
.	.	.	.	.	16BB-	.	.	.	.	.	.	.	.	.	.
.	.	8g	8ee-	8gg	16BB-	.	.	.	.	.	.	8ee-	8gg	8ee-	8gg
.	.	.	.	.	16BB-	.	.	.	.	.	.	.	.	.	.
=48	=48	=48	=48	=48	=48	=48	=48	=48	=48	=48	=48	=48	=48	=48	=48
2.ryy	2BB-	2b-	2dd	2ff	4BB-	4B-	4b-	4BB-	4B-	2d	2f	2dd	2ff	2dd	2ff
.	.	.	.	.	4r	4ryy	4r	4ryy	4r	.	.	.	.	.	.
.	4r	4e-	8gg	8gg	4r	4ryy	4r	4ryy	4r	4e-	4g	4ee-	4gg	4ryy	4r
.	.	.	8ee-	8ee-	.	.	.	.	.	.	.	.	.	.	.
=49	=49	=49	=49	=49	=49	=49	=49	=49	=49	=49	=49	=49	=49	=49	=49
2.ryy	2.r	4d	8ff	8ff	2.r	2.r	2.r	2.r	2.r	4d	4f	4dd	4ff	2.r	2.r
.	.	.	8dd	8dd	.	.	.	.	.	.	.	.	.	.	.
.	.	4c	8ee-	8ee-	.	.	.	.	.	4c	4e-	4cc	4ee-	.	.
.	.	.	8cc	8cc	.	.	.	.	.	.	.	.	.	.	.
.	.	4Bn	8dd	8dd	.	.	.	.	.	4Bn	4d	4bn	4dd	.	.
.	.	.	8bn	8bn	.	.	.	.	.	.	.	.	.	.	.
=50	=50	=50	=50	=50	=50	=50	=50	=50	=50	=50	=50	=50	=50	=50	=50
2.ryy	4r	4c'	4cc'	4cc'	2.r	2.r	2.r	2.r	2.r	4c'	4e-'	4cc'	4ee-'	4r	4r
.	4r	4c'	4cc'	4cc'	.	.	.	.	.	4c'	4e-'	4cc'	4ee-'	4r	4r
*	*	*	*	*	*	*	*	*	*	*clefF4	*clefF4	*	*	*	*
.	4F'	4f'	4a-'	8bn	.	.	.	.	.	4F'	4F'	4bn'	4dd'	4bn'	4bn'
.	.	.	.	8dd	.	.	.	.	.	.	.	.	.	.	.
=51	=51	=51	=51	=51	=51	=51	=51	=51	=51	=51	=51	=51	=51	=51	=51
2.ryy	8E-	8e-	8g	8cc	2.r	2.r	2.r	2.r	2.r	8E-	8E-	4cc	4ee-	8cc	8cc
.	8C	8c	8e-	8ee-	.	.	.	.	.	8C	8C	.	.	8ee-	8ee-
.	8E-	8e-	8g	8cc	.	.	.	.	.	8E-	8E-	4gg	4gg	8cc	8cc
.	8C	8c	8e-	8ee-	.	.	.	.	.	8C	8C	.	.	8ee-	8ee-
.	4F'	4f'	8c	8a	.	.	.	.	.	4F'	4F'	4ee-'	4cc'	4a	4a
.	.	.	8e-	8cc	.	.	.	.	.	.	.	.	.	.	.
=52	=52	=52	=52	=52	=52	=52	=52	=52	=52	=52	=52	=52	=52	=52	=52
2.ryy	4BB-'	4B-'	4d'	4b-X'	4r	4ryy	4r	4ryy	4r	4BB-'	4BB-'	4dd'	4dd'	4b-X'	4b-X'
.	4r	4r	4r	4b-'	4r	4ryy	4r	4ryy	4r	2ryy	4r	4ryy	4r	4r	4r
.	4BB-'	4B-'	4B-'	4B-'	4BB-'	4B-'	4b-'y	4BB-'	4B-'y	.	4BB-'	4b-'	4b-'	4r	4r
!	!	!	!	!	!	!	!	!	!	!.	!	!	!	!	!
!	!	!	!	!	!	!	!	!	!	!.	!	!	!	!	!
!	!	!	!	!	!	!	!	!	!	!.	!	!	!	!	!
!!WARNING: This measure contained too many data records
=53	=53	=53	=53	=53	=53	=53	=53	=53	=53	=53	=53	=53	=53	=53	=53
2.ryy	4BB-'	4B-'	4B-'	4B-'	4BB-'	4B-'	4b-'y	4BB-'	4B-'y	4BB-'	4BB-'	4b-'	4b-'	4r	4r
.	4BB-'	4B-'	4B-'	4B-'	4BB-'	4B-'	4b-'y	4BB-'	4B-'y	4BB-'	4BB-'	4b-'	4b-'	4r	4r
.	4r	4e-'	4e-' 4b-'y	8gg	4r	4ryy	4r	4ryy	4r	4e-'	4e-'	4gg'	4bb-'	8gg	8gg
.	.	.	.	8bb-	.	.	.	.	.	.	.	.	.	8bb-	8bb-
=54	=54	=54	=54	=54	=54	=54	=54	=54	=54	=54	=54	=54	=54	=54	=54
2.ryy	4r	4d'	4d' 4b-'y	8ff	4r	4ryy	4r	4ryy	4r	4d'	4d'	4ff'	4bb-'	8ff	8ff
.	.	.	.	8bb-	.	.	.	.	.	.	.	.	.	8bb-	8bb-
.	4r	4d'	4d' 4b-'y	8ff	4r	4ryy	4r	4ryy	4r	4d'	4d'	4ff'	4bb-'	8ff	8ff
.	.	.	.	8bb-	.	.	.	.	.	.	.	.	.	8bb-	8bb-
.	4BB-'	4B-'	4B-'	4B-'	4BB-'	4B-'	4b-'y	4BB-'	4B-'y	4BB-'	4BB-'	4b-'	4b-'	4r	4r
=55	=55	=55	=55	=55	=55	=55	=55	=55	=55	=55	=55	=55	=55	=55	=55
*	*staff:1	*staff:2	*staff:3	*staff:4	*staff:5	*staff:6	*staff:6	*staff:7	*staff:7	*staff:8	*staff:8	*staff:9	*staff:9	*staff:10	*staff:10
2.ryy	4BB-'	4B-'	4B-'	4B-'	4BB-'	4B-'	4b-'y	4BB-'	4B-'y	4BB-'	4BB-'	4b-'	4b-'	4r	4r
.	4BB-'	4B-'	4B-'	4B-'	4BB-'	4B-'	4b-'y	4BB-'	4B-'y	4BB-'	4BB-'	4b-'	4b-'	4r	4r
.	4r	4e-'	4e-' 4b-'y	8gg	4r	4ryy	4r	4ryy	4r	4e-'	4e-'	4gg'	4bb-'	8gg	8gg
.	.	.	.	8bb-	.	.	.	.	.	.	.	.	.	8bb-	8bb-
=56	=56	=56	=56	=56	=56	=56	=56	=56	=56	=56	=56	=56	=56	=56	=56
2.ryy	4r	4d'	4d' 4b-'y	8ff	2.r	4ryy	4r	4ryy	4r	4d'	4d'	4ff'	4bb-'	8ff	8ff
.	.	.	.	8bb-	.	.	.	.	.	.	.	.	.	8bb-	8bb-
.	4r	4d'	4d' 4b-'y	8ff	.	4ryy	4r	4ryy	4r	4d'	4d'	4ff'	4bb-'	8ff	8ff
.	.	.	.	8bb-	.	.	.	.	.	.	.	.	.	8bb-	8bb-
.	4E-	4e-	4g	8ee-	.	4cc	4ee-	4c	4e-	4e-	4e-	4ee-	4gg	8ee-	8ee-
.	.	.	.	8gg	.	.	.	.	.	.	.	.	.	8gg	8gg
=57	=57	=57	=57	=57	=57	=57	=57	=57	=57	=57	=57	=57	=57	=57	=57
2.ryy	2F	2f	8f	8dd	4FF	2b-	2dd	2B-	2d	2f	2f	2dd	2ff	8dd	8dd
.	.	.	8d	8ff	.	.	.	.	.	.	.	.	.	8ff	8ff
.	.	.	8f	8dd	8FF	.	.	.	.	.	.	.	.	8dd	8dd
.	.	.	8d	8ff	8FF	.	.	.	.	.	.	.	.	8ff	8ff
.	4FF	4F	8e-	8cc	8FF	4f	4cc	4F	4c	4F	4F	4a	8ee-	8cc	8cc
.	.	.	8c	8ee-	8FF	.	.	.	.	.	.	.	8cc	8ee-	8ee-
=58	=58	=58	=58	=58	=58	=58	=58	=58	=58	=58	=58	=58	=58	=58	=58
2.ryy	4BB-	4B-	4d	4b-	4BB-	4d	4b-	4D	4B-	4B-	4B-	4b-	4b-	4b-	4b-
.	4r	4r	4r	4r	4r	4ryy	4r	4ryy	4r	4r	4r	4ryy	4r	4r	4r
.	4r	4r	4r	4r	4r	4ryy	4r	4BB-'	4B-'y	4B-'	4B-'	4ryy	4r	4r	4r
=59	=59	=59	=59	=59	=59	=59	=59	=59	=59	=59	=59	=59	=59	=59	=59
2.ryy	2.r	2.r	2.r	2.r	2.r	2.r	2.r	4BB-'	4B-'y	4B-'	4B-'	4ryy	4r	4r	4r
.	.	.	.	.	.	.	.	4BB-'	4B-'y	4B-'	4B-'	4ryy	4r	4r	4r
.	.	.	.	.	.	.	.	4ryy	4r	4r	4r	4b-'	4ee-'	8gg	8gg
.	.	.	.	.	.	.	.	.	.	.	.	.	.	8bb-	8bb-
=60	=60	=60	=60	=60	=60	=60	=60	=60	=60	=60	=60	=60	=60	=60	=60
2.ryy	4r	4r	4r	4r	2.r	2.r	2.r	2.r	2.r	4r	4r	4b-'	4dd'	8ff	8ff
.	.	.	.	.	.	.	.	.	.	.	.	.	.	8bb-	8bb-
.	4r	4r	4r	4r	.	.	.	.	.	4r	4r	4b-'	4dd'	8ff	8ff
.	.	.	.	.	.	.	.	.	.	.	.	.	.	8bb-	8bb-
.	4BBn'	4Bn'	4Bn'	4Bn'	.	.	.	.	.	4BBn'	4BBn'	4b'	4bn'	4r	4r
=61	=61	=61	=61	=61	=61	=61	=61	=61	=61	=61	=61	=61	=61	=61	=61
2.ryy	4BBn'	4Bn	4Bn'	4Bn'	2.r	2.r	2.r	2.r	2.r	4BBn'	4BBn'	4b'	4bn'	4r	4r
.	4BB'	4B	4B'	4B'	.	.	.	.	.	4BB'	4BB'	4b'	4b'	4r	4r
.	4BB	4B	8f	8ff	.	.	.	.	.	4BB	4BB	4ff	4aa-	8ff	8ff
.	.	.	8a-	8aa-	.	.	.	.	.	.	.	.	.	8aa-	8aa-
=62	=62	=62	=62	=62	=62	=62	=62	=62	=62	=62	=62	=62	=62	=62	=62
2.ryy	4C	4c	8e-	8ee-	2.r	2.r	2.r	2.r	2.r	4C	4C	4ee-	4gg	8ee-	8ee-
.	.	.	8g	8gg	.	.	.	.	.	.	.	.	.	8gg	8gg
.	4D	4d	8d	8dd	.	.	.	.	.	4D	4D	4dd	4ff	8dd	8dd
.	.	.	8f	8ff	.	.	.	.	.	.	.	.	.	8ff	8ff
.	4E-	4e-	8c	8cc	.	.	.	.	.	4E-	4E-	4cc	4ee-	8cc	8cc
.	.	.	8e-	8ee-	.	.	.	.	.	.	.	.	.	8ee-	8ee-
=63	=63	=63	=63	=63	=63	=63	=63	=63	=63	=63	=63	=63	=63	=63	=63
*	*staff:8	*staff:9	*staff:10	*staff:11	*staff:12	*staff:13	*staff:13	*staff:14	*staff:14	*staff:15	*staff:15	*staff:16	*staff:16	*staff:17	*staff:17
2.ryy	2.F	2.f	2d	2b-X	4FF	2b-	2dd	2B-	2d	2.F	2.F	2b-X	2dd	2b-	2b-
.	.	.	.	.	8FF	.	.	.	.	.	.	.	.	.	.
.	.	.	.	.	8FF	.	.	.	.	.	.	.	.	.	.
.	.	.	8fQ	.	.	.	.	.	.	.	.	.	.	.	.
.	.	.	4e-	8cc	8FF	4f	4cc	4F	4c	.	.	4a	8cc	8cc	8cc
.	.	.	.	8dd	8FF	.	.	.	.	.	.	.	8dd	8dd	8dd
=64	=64	=64	=64	=64	=64	=64	=64	=64	=64	=64	=64	=64	=64	=64	=64
2.ryy	4BB-	4B-	4d	4b-	4BB-	4d	4b-	4D	4B-	4BB-	4BB-	4b-	4b-	4b-	4b-
.	4r	4r	4r	8bb-	4r	4ryy	4r	4ryy	4r	4r	4r	4ryy	4r	4r	4r
.	.	.	.	8ff	.	.	.	.	.	.	.	.	.	.	.
.	4r	4r	4r	8dd	4r	4ryy	4r	4ryy	4r	4r	4r	4ryy	4r	4r	4r
.	.	.	.	8b-	.	.	.	.	.	.	.	.	.	.	.
=65	=65	=65	=65	=65	=65	=65	=65	=65	=65	=65	=65	=65	=65	=65	=65
2.ryy	2.F	2.f	2.e- 2.a	2cc	16FF	2.f	2.cc	2.F	2.c	2.F	2.F	2.cc	2.ee-	2.aan	2.aan
.	.	.	.	.	16FF	.	.	.	.	.	.	.	.	.	.
.	.	.	.	.	16FF	.	.	.	.	.	.	.	.	.	.
.	.	.	.	.	16FF	.	.	.	.	.	.	.	.	.	.
.	.	.	.	.	16FF	.	.	.	.	.	.	.	.	.	.
.	.	.	.	.	16FF	.	.	.	.	.	.	.	.	.	.
.	.	.	.	.	16FF	.	.	.	.	.	.	.	.	.	.
.	.	.	.	.	16FF	.	.	.	.	.	.	.	.	.	.
.	.	.	.	8cc	16FF	.	.	.	.	.	.	.	.	.	.
.	.	.	.	.	16FF	.	.	.	.	.	.	.	.	.	.
.	.	.	.	8dd	16FF	.	.	.	.	.	.	.	.	.	.
.	.	.	.	.	16FF	.	.	.	.	.	.	.	.	.	.
=66	=66	=66	=66	=66	=66	=66	=66	=66	=66	=66	=66	=66	=66	=66	=66
2.ryy	4BB-	4B-	4d 4b-	4b-	4BB-	4b-	4dd	4B-	4d	4B-	4B-	4dd	4dd	4bb-	4bb-
.	4r	4r	4r	8ddd	4r	4ryy	4r	4ryy	4r	4r	4r	4ryy	4r	4r	4r
.	.	.	.	8bb-	.	.	.	.	.	.	.	.	.	.	.
.	4r	4r	4r	8ff	4r	4ryy	4r	4ryy	4r	4r	4r	4ryy	4r	4r	4r
.	.	.	.	8dd	.	.	.	.	.	.	.	.	.	.	.
=67	=67	=67	=67	=67	=67	=67	=67	=67	=67	=67	=67	=67	=67	=67	=67
2.ryy	2.F	2.f	2.e- 2.a	2cc	16FF	2.f	2.cc	2.F	2.c	2.F	2.F	2.cc	2.ee-	2.aa	2.aa
.	.	.	.	.	16FF	.	.	.	.	.	.	.	.	.	.
.	.	.	.	.	16FF	.	.	.	.	.	.	.	.	.	.
.	.	.	.	.	16FF	.	.	.	.	.	.	.	.	.	.
.	.	.	.	.	16FF	.	.	.	.	.	.	.	.	.	.
.	.	.	.	.	16FF	.	.	.	.	.	.	.	.	.	.
.	.	.	.	.	16FF	.	.	.	.	.	.	.	.	.	.
.	.	.	.	.	16FF	.	.	.	.	.	.	.	.	.	.
.	.	.	.	8cc	16FF	.	.	.	.	.	.	.	.	.	.
.	.	.	.	.	16FF	.	.	.	.	.	.	.	.	.	.
.	.	.	.	8dd	16FF	.	.	.	.	.	.	.	.	.	.
.	.	.	.	.	16FF	.	.	.	.	.	.	.	.	.	.
=68	=68	=68	=68	=68	=68	=68	=68	=68	=68	=68	=68	=68	=68	=68	=68
2ryy	4BB-	4B-	4d 4b-	4b-	4BB-	4d	4b-	4D	4B-	4BB-	4BB-	4dd	4dd	4bb-	4bb-
.	4r	4r	4r	4r	4r	4ryy	4r	4ryy	4r	4r	4r	4ryy	4r	4r	4r
=69:||:	=69:||:	=69:||:	=69:||:	=69:||:	=69:||:	=69:||:	=69:||:	=69:||:	=69:||:	=69:||:	=69:||:	=69:||:	=69:||:	=69:||:	=69:||:
*>C	*>C	*>C	*>C	*>C	*>C	*>C	*>C	*>C	*>C	*>C	*>C	*>C	*>C	*>C	*>C
4ryy	4r	4r	4r	4f'	4r	4r	4r	4r	4r	4r	4F'	4r	4f'	4r	4r
=70	=70	=70	=70	=70	=70	=70	=70	=70	=70	=70	=70	=70	=70	=70	=70
2.ryy	4BB-	2.r	2.r	2.d	2.r	2.r	2.r	2.r	2.r	2.r	2.B-	2.r	2.b-	2.r	2.r
.	4BB-	.	.	.	.	.	.	.	.	.	.	.	.	.	.
.	4BB-	.	.	.	.	.	.	.	.	.	.	.	.	.	.
=71	=71	=71	=71	=71	=71	=71	=71	=71	=71	=71	=71	=71	=71	=71	=71
2.ryy	4BB-	2.r	2.r	4c	2.r	2.r	2.r	2.r	2.r	2.r	4A	2.r	4a	2.r	2.r
.	4BB-	.	.	4d	.	.	.	.	.	.	4B-	.	4b-	.	.
.	4BB-	.	.	4e-	.	.	.	.	.	.	4c	.	4cc	.	.
=72	=72	=72	=72	=72	=72	=72	=72	=72	=72	=72	=72	=72	=72	=72	=72
2.ryy	4BB-	2.r	2.r	2enz	2.r	2.r	2.r	2.r	2.r	2.r	2c#z	2.r	2cc#z	2.r	2.r
.	4r	.	.	.	.	.	.	.	.	.	.	.	.	.	.
.	4r	.	.	4f	.	.	.	.	.	.	4d	.	4dd	.	.
=73	=73	=73	=73	=73	=73	=73	=73	=73	=73	=73	=73	=73	=73	=73	=73
2.ryy	4BB-	4D	4r	4d	2.r	2.r	2.r	2.r	2.r	2.r	4B-	2.r	4b-	2.r	2.r
.	4C	4E-	4r	4r	.	.	.	.	.	.	4r	.	4r	.	.
.	4D	4F	4f'	4B-'	.	.	.	.	.	.	4f'	.	4ff'	.	.
=74	=74	=74	=74	=74	=74	=74	=74	=74	=74	=74	=74	=74	=74	=74	=74
*	*staff:1	*staff:2	*staff:3	*staff:4	*	*	*	*	*	*staff:5	*staff:5	*staff:6	*staff:6	*staff:7	*staff:7
2.ryy	[2.E-	[2.E-	2A-	2B-	2.ryy	2.ryy	2.ryy	2.ryy	2.ryy	2.r	2f#z	2.r	2ff#z	2.r	2.r
.	.	.	4G	4Bn	.	.	.	.	.	.	4g	.	4gg	.	.
=75	=75	=75	=75	=75	=75	=75	=75	=75	=75	=75	=75	=75	=75	=75	=75
.	.	.	.	.	.	.	.	.	.	.	8fnq	.	8ffnq	.	.
2.ryy	2E-]	2E-]	2.g	[2.c	2.ryy	2.ryy	2.ryy	2.ryy	2.ryy	2.r	4e-	2.r	4ee-	2.r	2.r
.	.	.	.	.	.	.	.	.	.	.	4d	.	4dd	.	.
.	4En	4En	.	.	.	.	.	.	.	.	4c	.	4cc	.	.
=76	=76	=76	=76	=76	=76	=76	=76	=76	=76	=76	=76	=76	=76	=76	=76
2.ryy	2F	4F	4c	2c]	2.ryy	2.ryy	2.ryy	2.ryy	2.ryy	2.r	4B-	2.r	4b-	2.r	2.r
.	.	4r	4r	.	.	.	.	.	.	.	4A	.	4a	.	.
.	4r	4r	4r	4r	.	.	.	.	.	.	4G	.	4g	.	.
=77	=77	=77	=77	=77	=77	=77	=77	=77	=77	=77	=77	=77	=77	=77	=77
2.ryy	2.r	4A	2.c	2.e-X	2.ryy	2.ryy	2.ryy	2.ryy	2.ryy	2.r	4F	2.r	4f	2.fff	2.fff
.	.	4G	.	.	.	.	.	.	.	.	4G	.	4g	.	.
.	.	4F	.	.	.	.	.	.	.	.	4A	.	4a	.	.
=78	=78	=78	=78	=78	=78	=78	=78	=78	=78	=78	=78	=78	=78	=78	=78
2.ryy	4BB-	2F	4d	2.d	2.ryy	2.ryy	2.ryy	2.ryy	2.ryy	2.r	2.B-	2.r	2.b-	4ddd	4ddd
.	4BB-	.	4r	.	.	.	.	.	.	.	.	.	.	4ryy	4r
.	4BB-	4r	4r	.	.	.	.	.	.	.	.	.	.	4ryy	4r
=79	=79	=79	=79	=79	=79	=79	=79	=79	=79	=79	=79	=79	=79	=79	=79
2.ryy	4BB-	2.r	2.r	4c	2.ryy	2.ryy	2.ryy	2.ryy	2.ryy	2.r	4A	2.r	4a	2.r	2.r
.	4BB-	.	.	4d	.	.	.	.	.	.	4B-	.	4b-	.	.
.	4BB-	.	.	4e-	.	.	.	.	.	.	4c	.	4cc	.	.
=80	=80	=80	=80	=80	=80	=80	=80	=80	=80	=80	=80	=80	=80	=80	=80
2.ryy	4BB-	2.r	2.r	2enz	2.ryy	2.ryy	2.ryy	2.ryy	2.ryy	2.r	2c#z	2.r	2cc#z	2.r	2.r
.	4r	.	.	.	.	.	.	.	.	.	.	.	.	.	.
.	4r	.	.	4f	.	.	.	.	.	.	4d	.	4dd	.	.
=81	=81	=81	=81	=81	=81	=81	=81	=81	=81	=81	=81	=81	=81	=81	=81
2.ryy	2.A-	2.r	4f	4d	2.ryy	2.ryy	2.ryy	2.ryy	2.ryy	2.r	4B-	2.r	4b-	2.r	2.r
.	.	.	4e-	4e-X	.	.	.	.	.	.	4cn	.	4ccn	.	.
.	.	.	4d	4f	.	.	.	.	.	.	4d	.	4dd	.	.
=82	=82	=82	=82	=82	=82	=82	=82	=82	=82	=82	=82	=82	=82	=82	=82
2.ryy	4G	2.r	4b-	[2.B-	2.ryy	2.ryy	2.ryy	2.ryy	2.ryy	2.r	4e-	2.r	4ee-	2.r	2.r
.	4G-	.	4r	.	.	.	.	.	.	.	4en	.	4een	.	.
.	4F	.	4r	.	.	.	.	.	.	.	4f	.	4ff	.	.
=83	=83	=83	=83	=83	=83	=83	=83	=83	=83	=83	=83	=83	=83	=83	=83
2.ryy	2.En	2.r	2.d-	2.B-]	2.ryy	2.ryy	2.ryy	2.ryy	2.ryy	2.r	2.gz	2.r	2.ggz	2.r	2.r
=84	=84	=84	=84	=84	=84	=84	=84	=84	=84	=84	=84	=84	=84	=84	=84
2.ryy	2.F	4A	2.c	2.e-	2.ryy	2.ryy	2.ryy	2.ryy	2.ryy	2.r	4F	2.r	4f	2.fff	2.fff
.	.	4G	.	.	.	.	.	.	.	.	4G	.	4g	.	.
.	.	4F	.	.	.	.	.	.	.	.	4A	.	4a	.	.
=85	=85	=85	=85	=85	=85	=85	=85	=85	=85	=85	=85	=85	=85	=85	=85
2ryy	4BB-	4F	4B-	4d	2ryy	2ryy	2ryy	2ryy	2ryy	4r	4B-	4r	4b-	4ddd	4ddd
.	4r	4r	4r	4r	.	.	.	.	.	4r	4r	4r	4r	4ryy	4r
=86:|	=86:|	=86:|	=86:|	=86:|	=86:|	=86:|	=86:|	=86:|	=86:|	=86:|	=86:|	=86:|	=86:|	=86:|	=86:|
*>D	*>D	*>D	*>D	*>D	*>D	*>D	*>D	*>D	*>D	*>D	*>D	*>D	*>D	*>D	*>D
*	*staff:9	*staff:10	*staff:11	*staff:12	*	*	*	*staff:13	*staff:13	*staff:14	*staff:14	*staff:15	*staff:15	*staff:16	*staff:16
4ryy	4r	4r	4r	4r	4ryy	4ryy	4ryy	4r	4r	4r	4r	4b-'	4cc'	4r	4r
=87	=87	=87	=87	=87	=87	=87	=87	=87	=87	=87	=87	=87	=87	=87	=87
2.ryy	2.r	2.r	2.r	2.r	2.ryy	2.ryy	2.ryy	2.r	2.r	2.r	2.r	4b-	4cc	2.ccc	2.ccc
.	.	.	.	.	.	.	.	.	.	.	.	4a	4dd	.	.
.	.	.	.	.	.	.	.	.	.	.	.	4g	4een	.	.
=88	=88	=88	=88	=88	=88	=88	=88	=88	=88	=88	=88	=88	=88	=88	=88
2.ryy	2.r	4r	4r	4r	2.ryy	2.ryy	2.ryy	2.r	2.r	2.r	4r	[2.f	2.ff	4aa	4aa
.	.	4r	4r	4r	.	.	.	.	.	.	4r	.	.	4ryy	4r
.	.	4e-'	4a'	4cc'	.	.	.	.	.	.	4e-X'	.	.	4ryy	4r
=89	=89	=89	=89	=89	=89	=89	=89	=89	=89	=89	=89	=89	=89	=89	=89
2.ryy	2.r	4e-	4a	4cc	2.ryy	2.ryy	2.ryy	2.F	2.F	2.r	4e-	2.f]	[2.ff	2.r	2.r
.	.	4d	4b-	4dd	.	.	.	.	.	.	4d	.	.	.	.
.	.	4c	4cc	4ee-X	.	.	.	.	.	.	4c	.	.	.	.
=90	=90	=90	=90	=90	=90	=90	=90	=90	=90	=90	=90	=90	=90	=90	=90
2.ryy	4r	2B-	2dd	2dd	2.ryy	2.ryy	2.ryy	4D	4D	2.r	2B-	[2.b-	2ff]	2.r	2.r
.	4r	.	.	.	.	.	.	4ryy	4r	.	.	.	.	.	.
.	4A-'	4f'	4b-'	4dd'	.	.	.	4ryy	4r	.	4r	.	4ff	.	.
=91	=91	=91	=91	=91	=91	=91	=91	=91	=91	=91	=91	=91	=91	=91	=91
2.ryy	4A-	4f	2.b-	4dd	2.ryy	2.ryy	2.ryy	2.r	2.r	2.r	2.r	2.b-_	4ff	2.bb-	2.bb-
.	4G	4e-	.	4ee-	.	.	.	.	.	.	.	.	4gg	.	.
.	4F	4d	.	4ff	.	.	.	.	.	.	.	.	4aa-	.	.
=92	=92	=92	=92	=92	=92	=92	=92	=92	=92	=92	=92	=92	=92	=92	=92
2.ryy	[2.E-	2B-	2b-	2gg	2.ryy	2.ryy	2.ryy	2.r	2.r	2.r	2.r	4b-]	2bb-	4gg	4gg
.	.	.	.	.	.	.	.	.	.	.	.	4r	.	4ryy	4r
.	.	4Bn	4g	4ee-	.	.	.	.	.	.	.	4r	4gg	4ryy	4r
=93	=93	=93	=93	=93	=93	=93	=93	=93	=93	=93	=93	=93	=93	=93	=93
2.ryy	4E-]	4c	4g	4cc	2.ryy	2.ryy	2.ryy	2.r	2.r	2.r	2.r	2.r	4ee-	2.r	2.r
.	4D	4a-	4f	4bn	.	.	.	.	.	.	.	.	4bn	.	.
.	4E-	4g	4e-	4cc	.	.	.	.	.	.	.	.	4cc	.	.
=94	=94	=94	=94	=94	=94	=94	=94	=94	=94	=94	=94	=94	=94	=94	=94
2.ryy	2F	4f	4d	4b-X	2.ryy	2.ryy	2.ryy	2.r	2.r	2.r	4r	2.r	4b-X	2.r	2.r
.	.	4r	4c	4a	.	.	.	.	.	.	4r	.	4an	.	.
.	4r	4r	4r	4f'	.	.	.	.	.	.	4F'	.	4f'	.	.
=95	=95	=95	=95	=95	=95	=95	=95	=95	=95	=95	=95	=95	=95	=95	=95
2.ryy	4BB-	2.r	2.r	2.d	2.ryy	2.ryy	2.ryy	2.r	2.r	2.r	2.B-	2.r	2.b-	2.r	2.r
.	4BB-	.	.	.	.	.	.	.	.	.	.	.	.	.	.
.	4BB-	.	.	.	.	.	.	.	.	.	.	.	.	.	.
=96	=96	=96	=96	=96	=96	=96	=96	=96	=96	=96	=96	=96	=96	=96	=96
2.ryy	4BB-	2.r	2.r	4c	2.ryy	2.ryy	2.ryy	2.r	2.r	2.r	4A	2.r	4a	2.r	2.r
.	4BB-	.	.	4d	.	.	.	.	.	.	4B-	.	4b-	.	.
.	4BB-	.	.	4e-	.	.	.	.	.	.	4c	.	4cc	.	.
=97	=97	=97	=97	=97	=97	=97	=97	=97	=97	=97	=97	=97	=97	=97	=97
2.ryy	4BB-	2.r	2.r	2enz	2.ryy	2.ryy	2.ryy	2.r	2.r	2.r	2c#z	2.r	2cc#z	2.r	2.r
.	4r	.	.	.	.	.	.	.	.	.	.	.	.	.	.
.	4r	.	.	4f	.	.	.	.	.	.	4d	.	4dd	.	.
=98	=98	=98	=98	=98	=98	=98	=98	=98	=98	=98	=98	=98	=98	=98	=98
2.ryy	4BB-	4D	4r	4d	2.ryy	2.ryy	2.ryy	2.r	2.r	2.r	4B-	2.r	4b-	2.r	2.r
.	4C	4E-	4r	4r	.	.	.	.	.	.	4r	.	4r	.	.
.	4D	4F	4f'	4B-'	.	.	.	.	.	.	4f'	.	4ff'	.	.
=99	=99	=99	=99	=99	=99	=99	=99	=99	=99	=99	=99	=99	=99	=99	=99
*	*staff:1	*staff:2	*staff:3	*staff:4	*	*	*	*staff:5	*staff:5	*staff:6	*staff:6	*staff:7	*staff:7	*staff:8	*staff:8
2.ryy	[2.E-	[2.E-	2A-	2B-	2.ryy	2.ryy	2.ryy	2.r	2.r	2.r	2f#z	2.r	2ff#z	2.r	2.r
.	.	.	4G	4Bn	.	.	.	.	.	.	4g	.	4gg	.	.
=100	=100	=100	=100	=100	=100	=100	=100	=100	=100	=100	=100	=100	=100	=100	=100
.	.	.	.	.	.	.	.	.	.	.	8fnq	.	8ffnq	.	.
2.ryy	2E-]	2E-]	2.g	[2.c	2.ryy	2.ryy	2.ryy	2.r	2.r	2.r	4e-	2.r	4ee-	2.r	2.r
.	.	.	.	.	.	.	.	.	.	.	4d	.	4dd	.	.
.	4En	4En	.	.	.	.	.	.	.	.	4c	.	4cc	.	.
=101	=101	=101	=101	=101	=101	=101	=101	=101	=101	=101	=101	=101	=101	=101	=101
2.ryy	2F	4F	4c	2c]	2.ryy	2.ryy	2.ryy	2.r	2.r	2.r	4B-	2.r	4b-	2.r	2.r
.	.	4r	4r	.	.	.	.	.	.	.	4A	.	4a	.	.
.	4r	4r	4r	4r	.	.	.	.	.	.	4G	.	4g	.	.
=102	=102	=102	=102	=102	=102	=102	=102	=102	=102	=102	=102	=102	=102	=102	=102
2.ryy	2.r	4A	2.c	2.e-X	2.ryy	2.ryy	2.ryy	2.F	2.f	2.r	4F	2.ff	4f	2.fff	2.fff
.	.	4G	.	.	.	.	.	.	.	.	4G	.	4g	.	.
.	.	4F	.	.	.	.	.	.	.	.	4A	.	4a	.	.
=103	=103	=103	=103	=103	=103	=103	=103	=103	=103	=103	=103	=103	=103	=103	=103
2.ryy	4B-	2F	4B-	4d	2.ryy	2.ryy	2.ryy	4D	4d	2.r	2.B-	4dd	2.b-	4ddd	4ddd
.	4B-	.	4c	4e-	.	.	.	4ryy	4r	.	.	4r	.	4ryy	4r
.	4B-	4r	4d	4f	.	.	.	4ryy	4r	.	.	4r	.	4ryy	4r
=104	=104	=104	=104	=104	=104	=104	=104	=104	=104	=104	=104	=104	=104	=104	=104
2.ryy	4B-	2.r	2.e-	2.g-	2.ryy	2.ryy	2.ryy	2.r	2.r	2.r	4A	2.r	4a	2.r	2.r
.	4B-	.	.	.	.	.	.	.	.	.	4B-	.	4b-	.	.
.	4B-	.	.	.	.	.	.	.	.	.	4c	.	4cc	.	.
=105	=105	=105	=105	=105	=105	=105	=105	=105	=105	=105	=105	=105	=105	=105	=105
2.ryy	2.B-	2.B-	2.en	2.gn	2.ryy	2.ryy	2.ryy	2.r	2.r	2.r	2.d-	2.r	[2.dd-	2.r	2.r
=106	=106	=106	=106	=106	=106	=106	=106	=106	=106	=106	=106	=106	=106	=106	=106
2.ryy	4c-	4c-	2.f	4a-	2.ryy	2.ryy	2.ryy	2.r	2.r	2.r	2.dn	2.r	2.ddn]	2.r	2.r
.	4B-	4B-	.	4b-	.	.	.	.	.	.	.	.	.	.	.
.	4A-	4A-	.	4cc-	.	.	.	.	.	.	.	.	.	.	.
=107	=107	=107	=107	=107	=107	=107	=107	=107	=107	=107	=107	=107	=107	=107	=107
2.ryy	4G	4G	2.B-	[2.b-	2.ryy	2.ryy	2.ryy	2.r	2.r	2.r	4e-	2.r	4ee-	2.r	2.r
.	4G-	4G-	.	.	.	.	.	.	.	.	4en	.	4een	.	.
.	4F	4F	.	.	.	.	.	.	.	.	4f	.	4ff	.	.
=108	=108	=108	=108	=108	=108	=108	=108	=108	=108	=108	=108	=108	=108	=108	=108
2.ryy	2.En	4En	2.d-	2.b-]	2.ryy	2.ryy	2.ryy	2.r	2.r	2.r	2.gz	2.r	2.ggz	2.r	2.r
.	.	4r	.	.	.	.	.	.	.	.	.	.	.	.	.
.	.	4r	.	.	.	.	.	.	.	.	.	.	.	.	.
=109	=109	=109	=109	=109	=109	=109	=109	=109	=109	=109	=109	=109	=109	=109	=109
2.ryy	2.F	4An	2.c	2.e-	2.ryy	2.ryy	2.ryy	2.F	2.f	2.r	4F	2.ff	4f	2.fff	2.fff
.	.	4G	.	.	.	.	.	.	.	.	4G	.	4g	.	.
.	.	4F	.	.	.	.	.	.	.	.	4A	.	4a	.	.
=110	=110	=110	=110	=110	=110	=110	=110	=110	=110	=110	=110	=110	=110	=110	=110
2ryy	4BB-	4F	4B-	4d	2ryy	2ryy	2ryy	4D	4d	4r	4B-	4dd	4b-	4ddd	4ddd
.	4r	4r	4r	4r	.	.	.	4ryy	4r	4r	4r	4r	4r	4ryy	4r
==111:|	==111:|	==111:|	==111:|	==111:|	==111:|	==111:|	==111:|	==111:|	==111:|	==111:|	==111:|	==111:|	==111:|	==111:|	==111:|
*-	*-	*-	*-	*-	*-	*-	*-	*-	*-	*-	*-	*-	*-	*-	*-
